X:550
T: FOLGE KIND FOLGE
N: E1831
O: Europa, Mitteleuropa, Deutschland, Niederdeutsch
R: Kinder - Lied
M: 4/4
L: 1/4
K: F
 | FGA2 | c2A2 | c2A2 |
cBAG | A2F2 |
FGA2 | c2A2 | c2A2 |
cBAG | A2F2 |
ABcB | AGF2 | G2F2 |
BAGD | F2F2

@@@ Tune index: 5234
